image/menu.svg

<svg height="512" width="512" xmlns="http://www.w3.org/2000/svg"><path d="m80 136v48h48v-48zm80 0v48h224v-48zm-80 96v48h48v-48zm80 0v48h160v-48zm-80 96v48h48v-48zm80 0v48h272v-48z" fill="#222"/></svg>

<?xml version="1.0" encoding="UTF-8" standalone="no"?>
<!-- Created with Inkscape (http://www.inkscape.org/) -->
<svg xmlns:dc="http://purl.org/dc/elements/1.1/" xmlns:cc="http://creativecommons.org/ns#" xmlns:rdf="http://www.w3.org/1999/02/22-rdf-syntax-ns#" xmlns:svg="http://www.w3.org/2000/svg" xmlns="http://www.w3.org/2000/svg" xmlns:sodipodi="http://sodipodi.sourceforge.net/DTD/sodipodi-0.dtd" xmlns:inkscape="http://www.inkscape.org/namespaces/inkscape" width="512" height="512" id="svg2" version="1.1" inkscape:version="0.48.4 r9939" sodipodi:docname="Nouveau document 1">
  <defs id="defs4"/>
  <sodipodi:namedview id="base" pagecolor="#ffffff" bordercolor="#666666" borderopacity="1.0" inkscape:pageopacity="0.0" inkscape:pageshadow="2" inkscape:zoom="0.49497475" inkscape:cx="160.41545" inkscape:cy="120.49877" inkscape:document-units="px" inkscape:current-layer="layer1" showgrid="false" inkscape:window-width="1027" inkscape:window-height="740" inkscape:window-x="649" inkscape:window-y="51" inkscape:window-maximized="0"/>
  <metadata id="metadata7">
    <rdf:RDF>
      <cc:Work rdf:about="">
        <dc:format>image/svg+xml</dc:format>
        <dc:type rdf:resource="http://purl.org/dc/dcmitype/StillImage"/>
        <dc:title/>
      </cc:Work>
    </rdf:RDF>
  </metadata>
  <g inkscape:label="Calque 1" inkscape:groupmode="layer" id="layer1" transform="translate(0,-540.36218)">
    <path style="color:#000000;fill:#222222;fill-opacity:1;fill-rule:nonzero;stroke:none;stroke-width:20;marker:none;visibility:visible;display:inline;overflow:visible;enable-background:accumulate" d="M 80 136 L 80 184 L 128 184 L 128 136 L 80 136 z M 160 136 L 160 184 L 384 184 L 384 136 L 160 136 z M 80 232 L 80 280 L 128 280 L 128 232 L 80 232 z M 160 232 L 160 280 L 320 280 L 320 232 L 160 232 z M 80 328 L 80 376 L 128 376 L 128 328 L 80 328 z M 160 328 L 160 376 L 432 376 L 432 328 L 160 328 z " transform="translate(0,540.36218)" id="rect2985"/>
  </g>
</svg>
